X: 64
T: Pollonesse #64
M: 3/4
L: 1/16
K: F
Q:120
f2ef agfe f2c2|dcBA B2Bd c4|f2ef g2eg b2g2| agfe f2c2 A2F2|
f2ef agfe f2c2|dcBA B2Bd c4|f2ef g2eg b2g2| agfe f4 F4:|
c4 c2BA G2FE|DBAB dBAB fBAB|c4 c2BA G2FE|DBAB dBAB fBAB|
f2ef g2eg b2g2| agfe f4 F4:|

